X:21
T:Gubbstt
T:efter Pelle Fors
O:Vikbolandet, stergtland
S:efter Pelle Fors
B:Ltar efter Pelle Fors
R:Gubbstt
Z:Bjrn Ek 2009-01-01
N:Nr 21 i Ltar efter Pelle Fors
D:Erik Pekkari - Gubbstt
M:3/4
L:1/8
K:G
%
|:g2 g2 f>e     |e>d d2 B>e|e>d d2 B>e|e>d d>g B>d|
g2 g2 !trill! f>e|d2 d>g B>d|A2 A>d F>A|G2 G4     :|
%
|:!trill!A2 F>A c2|!trill!B2 G>B d2|D2 F>A c2 |!trill!B2 G>B d2|
g2 f>e d>c        |!trill!B2 G>B d2|D2 F>A c>B|G2 G4          :|
%
|:g>f g>a b>a     |f>a g2 d2 |!trill!g>f g>a b>a|f>a d'2 d2|
!trill!g>f g>a b>a|f>a g2 d>B|A2 Ad FA          |G2 G4    :|
%
